X: 1856
T: Sıra Sıra Siniler
C: (Anonim)
O: Turkey
F: http://compmusic.upf.edu/node/140
N: rast--turku--nimsofyan--sira_sira--
N: makam= rast
N: form= turku
N: usul= nimsofyan = 2/4
M: 2/4
L: 1/16
K: C _1/4B ^f  
Q: 1/4=84
%%MIDI tuningsystem comma53
z2GA G2A2  | B2c2 d4  | e2=fg e2d2  | dedc B4  | \
w:  Sı ra  sı ra   |  si ni ler    |  Has ta  *  o lan   |  i *  ni *  ler    | 
z2cd d2d2  | 
w:  Al dı  git ti   | 
c2cB A4  | AA2G ABcd  | cB{c}BA G4  | z2cd d2d2  | 
w:  yâ ri *  mi    |  De niz *  de *  ki   |  ge mi *  *  *  ler    |  Al dı  git ti   | 
c2cB A4  | AA2G ABcd  | cB{c}BA G4  | z2dd g4  | \
w:  yâ ri *  mi    |  De niz *  de *  ki   |  ge mi *  *  *  ler    |  Sa na  hiç   | 
ff2e d4  | 
w:  kı ya *  mam    | 
e2=fg e2ed  | dedc B4  | z2cd d2d2  | c2cB A4  | \
w:  Yâr  se ni  se ve  |  rim  *  can *  dan    |  Ba kış la rın   |  pek  ya *  man    | 
AA2G ABcd  | 
w:  Be nim  *  sa *  rı   | 
cB{c}BA G4  | z2dd g4  | ff2e d4  | e2=fg e2ed  | \
w:  ka nar *  *  *  yam    |  Sa na  hiç   |  kı ya *  mam    |  Yâr  se ni  se ve  | 
dedc B4  | 
w:  rim  *  can *  dan    | 
z2cd d2d2  | c2cB A4  | AA2G ABcd  | cB{c}BA G4  | 
w:  Ba kış la rın   |  pek  ya *  man    |  Be nim  *  sa *  rı   |  ka nar *  *  *  yam    | 
z2GA G2A2  | B2c2 d4  | e2=fg e2d2  | dedc B4  | \
w:  Sı ra  sı ra   |  si ni ler    |  Has ta  *  o lan   |  i *  ni *  ler    | 
z2cd d2d2  | 
w:  Al dı  git ti   | 
c2cB A4  | AA2G ABcd  | cB{c}BA G4  | z2cd d2d2  | 
w:  yâ ri *  mi    |  De niz *  de *  ki   |  ge mi *  *  *  ler    |  Al dı  git ti   | 
c2cB A4  | AA2G ABcd  | cB{c}BA G4  | z2dd g4  | \
w:  yâ ri *  mi    |  De niz *  de *  ki   |  ge mi *  *  *  ler    |  Sa na  hiç   | 
ff2e d4  | 
w:  kı ya *  mam    | 
e2=fg e2ed  | dedc B4  | z2cd d2d2  | c2cB A4  | \
w:  Yâr  se ni  se ve  |  rim  *  can *  dan    |  Ba kış la rın   |  pek  ya *  man    | 
AA2G ABcd  | 
w:  Be nim  *  sa *  rı   | 
cB{c}BA G4  | z2dd g4  | ff2e d4  | e2=fg e2ed  | \
w:  ka nar *  *  *  yam    |  Sa na  hiç   |  kı ya *  mam    |  Yâr  se ni  se ve  | 
dedc B4  | 
w:  rim  *  can *  dan    | 
z2cd d2d2  | c2cB A4  | AA2G ABcd  | cB{c}BA G4  | 
w:  Ba kış la rın   |  pek  ya *  man    |  Be nim  *  sa *  rı   |  ka nar *  *  *  yam    | 
|


